src/assets/images/partner-logo-2.svg

<svg width="90" height="29" viewBox="0 0 90 29" fill="none" xmlns="http://www.w3.org/2000/svg">
<path d="M16.933 14.4443C17.4697 14.9815 17.9293 15.678 18.312 16.5338C18.6958 17.3885 19.0471 18.2952 19.3664 19.2535C19.6851 20.2106 20.0109 21.1748 20.3426 22.1461C20.6755 23.1163 21.0398 23.965 21.4349 24.6929C21.8312 25.4214 22.2908 25.9959 22.8139 26.4176C23.3381 26.8393 23.9707 26.9731 24.7118 26.8203C24.2266 27.3303 23.5496 27.7194 22.6812 27.9883C21.8122 28.2566 20.8668 28.4034 19.845 28.4289C18.3884 28.4289 17.1806 28.0581 16.2222 27.3178C15.2649 26.5775 14.4795 25.6453 13.867 24.5223C13.2539 23.3982 12.7617 22.1841 12.3908 20.8811C12.0212 19.5781 11.6954 18.3651 11.4147 17.2422C11.1333 16.1181 10.846 15.1787 10.5522 14.4254C10.2584 13.672 9.88165 13.2953 9.42198 13.2953H11.7606C12.321 13.2953 12.8505 13.1236 13.3481 12.7789C13.8468 12.433 14.2816 11.9663 14.6513 11.3787C15.0221 10.7912 15.3159 10.1018 15.5327 9.31055C15.7507 8.51928 15.8597 7.66346 15.8597 6.74248C15.8597 5.84875 15.7507 4.99352 15.5327 4.17678C15.3159 3.35886 15.0221 2.64341 14.6513 2.03041C14.2816 1.41801 13.8468 0.926427 13.3481 0.556852C12.8505 0.186094 12.321 0.00012207 11.7606 0.00012207H15.4379C16.4342 0.00012207 17.3672 0.173064 18.2362 0.518947C19.1046 0.863647 19.8645 1.3422 20.5155 1.9546C21.1677 2.5676 21.6848 3.28305 22.0675 4.10097C22.4513 4.91771 22.6433 5.78538 22.6433 6.70458C22.6433 7.62378 22.4513 8.49263 22.0675 9.31055C21.6848 10.1273 21.1677 10.8427 20.5155 11.4569C19.8645 12.0699 19.1046 12.5485 18.2362 12.8926C17.3672 13.2373 16.4342 13.409 15.4379 13.409H14.8645C15.0683 13.409 15.2981 13.4606 15.554 13.563C15.7578 13.6406 15.9805 13.7496 16.2222 13.89C16.465 14.0309 16.702 14.2157 16.933 14.4443ZM9.23006 24.2925C9.23006 24.931 9.45338 25.512 9.9006 26.0362C10.3472 26.5591 10.9035 26.8203 11.5687 26.8203H0.186035C0.825775 26.8203 1.36896 26.5591 1.81619 26.0362C2.26282 25.512 2.48673 24.931 2.48673 24.2925V2.52792C2.48673 1.89004 2.26282 1.30962 1.81619 0.786652C1.36896 0.262496 0.825775 0.00012207 0.186035 0.00012207H9.23006V24.2925Z" fill="#808991"/>
<path d="M72.9567 24.7117C72.9567 25.1731 73.1095 25.6209 73.4163 26.055C73.7244 26.4879 74.0946 26.7432 74.5276 26.8202H65.6376C66.0718 26.7432 66.442 26.4879 66.7488 26.055C67.0551 25.6209 67.2085 25.1731 67.2085 24.7117V11.073C67.2085 10.5885 67.0551 10.1349 66.7488 9.71317C66.442 9.29148 66.0718 9.04213 65.6376 8.96455L72.1914 8.00744H72.3051C72.7393 8.00744 72.9567 8.2248 72.9567 8.65894V24.7117ZM70.0826 5.93925C69.2657 5.93925 68.5697 5.652 67.9951 5.07691C67.42 4.50241 67.1327 3.8059 67.1327 2.98739C67.1327 2.17125 67.42 1.46882 67.9951 0.881292C68.5697 0.293764 69.2657 0 70.0826 0C70.9006 0 71.6037 0.293764 72.1914 0.881292C72.779 1.46882 73.0728 2.17125 73.0728 2.98739C73.0728 3.39665 72.9958 3.78044 72.8429 4.13876C72.6895 4.49589 72.4786 4.80861 72.2103 5.07691C71.9414 5.3458 71.6215 5.55664 71.2507 5.70945C70.8811 5.86285 70.4913 5.93925 70.0826 5.93925Z" fill="#808991"/>
<path d="M63.2253 10.1916V23.3707C63.2253 23.9583 63.4225 24.4504 63.8176 24.8467C64.2139 25.2435 64.6931 25.4413 65.2559 25.4413C65.6379 25.4413 65.9957 25.3388 66.3292 25.1333C66.0982 25.3134 65.8299 25.5124 65.5236 25.7303C65.2168 25.9471 64.872 26.1508 64.4882 26.3415C64.1055 26.5328 63.6838 26.6922 63.2229 26.8201C62.7632 26.948 62.2657 27.012 61.7302 27.012C61.1426 27.012 60.5864 26.8971 60.0621 26.6685C59.5391 26.4381 59.0859 26.1248 58.7021 25.728C58.3194 25.3317 58.0132 24.8721 57.7828 24.3492C57.5517 23.825 57.4368 23.2689 57.4368 22.6813V10.0755C57.4368 9.61594 57.2899 9.17648 56.9961 8.75597C56.7023 8.33427 56.3256 8.07249 55.8659 7.96944C57.3219 7.86698 58.676 7.51576 59.9271 6.9152C61.1793 6.31524 62.2787 5.5293 63.2253 4.55798V7.96944H64.7559C64.3229 8.07249 63.9598 8.33427 63.666 8.75597C63.3722 9.17648 63.2253 9.61594 63.2253 10.0755V10.1916Z" fill="#808991"/>
<path d="M46.2864 25.4794C46.3368 25.8366 46.5601 26.1617 46.957 26.4555C47.3533 26.7492 47.9095 26.9222 48.6251 26.9743C47.7306 26.9222 46.8936 26.7564 46.1135 26.4768C45.3345 26.1961 44.6516 25.8383 44.0639 25.4036C43.4763 24.9695 43.0096 24.4649 42.6636 23.8898C42.3189 23.3153 42.1471 22.6952 42.1471 22.0301C42.1471 21.2139 42.4344 20.518 43.0096 19.9429C43.5841 19.3684 44.2807 19.0806 45.0994 19.0806C45.5069 19.0806 45.8955 19.1576 46.2651 19.3104C46.6359 19.4638 46.9558 19.6746 47.2247 19.9429C47.4931 20.2118 47.7039 20.5251 47.8574 20.8834C48.0102 21.2406 48.0872 21.6226 48.0872 22.0301C48.0872 22.4897 47.9912 22.9179 47.8005 23.3141C47.6092 23.7109 47.3468 24.0497 47.0139 24.3304C46.8101 24.5093 46.6312 24.6947 46.4784 24.8872C46.325 25.0785 46.261 25.2757 46.2864 25.4794ZM56.5957 21.6486C56.6461 22.415 56.4856 23.124 56.1147 23.7761C55.7451 24.427 55.2215 24.9884 54.5438 25.4605C53.8674 25.9331 53.0825 26.3098 52.1886 26.5905C51.2942 26.8713 50.3488 27.0122 49.3525 27.0122C50.0426 27.0122 50.6302 26.7315 51.1153 26.1688C51.5998 25.6068 51.8427 24.9813 51.8427 24.2925C51.8427 23.6529 51.6064 23.0334 51.1343 22.4328C50.6616 21.8328 50.0615 21.2329 49.3335 20.6323C48.6049 20.0324 47.8254 19.4134 46.9949 18.775C46.1656 18.1353 45.3867 17.4714 44.6587 16.7826C43.9301 16.0926 43.3294 15.3647 42.8555 14.5983C42.3829 13.8325 42.1471 13.0027 42.1471 12.1084C42.1471 11.3408 42.3515 10.6769 42.7608 10.116C43.1695 9.55398 43.6872 9.08786 44.3127 8.71829C44.9383 8.34753 45.6337 8.07272 46.4002 7.89385C47.1679 7.7138 47.9095 7.62378 48.6251 7.62378C48.8537 7.62378 49.064 7.62378 49.2553 7.62378C49.4478 7.62378 49.6463 7.64984 49.85 7.70196C49.1594 7.5995 48.5658 7.75882 48.0682 8.18051C47.5707 8.6022 47.3219 9.23415 47.3219 10.0758C47.3219 10.7663 47.5387 11.4048 47.9735 11.9923C48.4077 12.5799 48.9568 13.155 49.6202 13.717C50.2848 14.2797 51.0069 14.8482 51.7858 15.4227C52.5642 15.9961 53.2981 16.5966 53.987 17.2232C54.6771 17.8487 55.2647 18.5256 55.7499 19.2535C56.2362 19.982 56.5181 20.7804 56.5957 21.6486ZM55.3305 14.3685C55.2274 13.8064 55.0675 13.1739 54.8495 12.4709C54.6327 11.7685 54.3264 11.098 53.9302 10.4596C53.5351 9.82168 53.0375 9.2537 52.4374 8.75619C51.8368 8.2575 51.1023 7.91873 50.2339 7.73986C50.6426 7.81567 51.0193 7.90511 51.3641 8.00757C51.7082 8.11062 52.0334 8.21308 52.3403 8.31555C52.6465 8.41682 52.9468 8.49323 53.2407 8.54535C53.5345 8.59628 53.8478 8.60872 54.1813 8.58325C54.3851 8.5566 54.6078 8.50507 54.8495 8.42926C55.0923 8.35227 55.2529 8.26283 55.3305 8.16156V14.3685Z" fill="#808991"/>
<path d="M82.4998 7.62378C82.2439 7.6759 81.943 7.91281 81.597 8.3345C81.2523 8.75501 80.9271 9.30996 80.6208 9.99995C80.314 10.6905 80.0522 11.4889 79.8342 12.3951C79.6174 13.3018 79.5096 14.266 79.5096 15.2877C79.5096 16.5658 79.6755 17.7669 80.0072 18.8911C80.3401 20.014 80.7944 20.9972 81.3696 21.8405C81.9442 22.6827 82.6147 23.3467 83.3812 23.8329C84.1471 24.318 84.9646 24.5602 85.8335 24.5602C86.574 24.5602 87.3026 24.3754 88.0181 24.0059C88.7337 23.6351 89.3592 23.1169 89.8947 22.4518C89.1282 23.8323 88.094 24.9381 86.7908 25.7684C85.4876 26.5976 84.0571 27.0122 82.4998 27.0122C81.2991 27.0122 80.1683 26.7575 79.1068 26.247C78.0465 25.7353 77.1212 25.0453 76.3299 24.1764C75.5385 23.3082 74.9118 22.2859 74.4509 21.1109C73.9912 19.9358 73.7614 18.6719 73.7614 17.318C73.7614 15.9901 73.9912 14.7322 74.4509 13.5441C74.9118 12.3566 75.5385 11.3284 76.3299 10.4596C77.1212 9.59129 78.0465 8.90189 79.1068 8.39136C80.1683 7.87964 81.2991 7.62378 82.4998 7.62378ZM83.1514 7.62378C84.0707 7.70137 84.9385 7.91932 85.7554 8.27764C86.5734 8.63478 87.2889 9.06891 87.902 9.58063C88.5145 10.0912 88.9997 10.6526 89.3568 11.265C89.7152 11.878 89.8947 12.4656 89.8947 13.0276C89.8947 13.8444 89.6009 14.5403 89.0133 15.1148C88.4257 15.6899 87.7231 15.9771 86.9069 15.9771C86.0883 15.9771 85.3916 15.6899 84.8171 15.1148C84.2419 14.5403 83.9546 13.8444 83.9546 13.0276C83.9546 12.2352 84.2229 11.5446 84.7602 10.9571C85.0161 10.703 85.2205 10.4418 85.3739 10.1729C85.5267 9.9046 85.6037 9.62979 85.6037 9.34846C85.6037 9.0926 85.5267 8.85688 85.3739 8.64011C85.2205 8.42215 85.022 8.24388 84.7792 8.1047C84.5357 7.96433 84.2674 7.85536 83.9736 7.77777C83.6797 7.70077 83.4055 7.64925 83.1514 7.62378Z" fill="#808991"/>
<path d="M29.2713 25.0954C29.2713 25.5047 29.5201 25.8748 30.0177 26.2065C30.5164 26.5382 31.1366 26.704 31.8777 26.704C32.7212 26.704 33.4877 26.6021 34.1784 26.3984C33.2827 26.7052 32.3237 26.9018 31.3019 26.9906C30.2813 27.0807 29.343 26.9723 28.487 26.6661C27.6305 26.3599 26.9215 25.8239 26.3593 25.0575C25.7966 24.2917 25.5158 23.193 25.5158 21.7621V11.0729C25.5158 10.5884 25.3624 10.1347 25.0561 9.71305C24.7493 9.29136 24.3791 9.04201 23.9449 8.96443L30.4987 8.00732H30.6124C31.0466 8.00732 31.264 8.22469 31.264 8.65882V21.2267C31.264 21.7118 31.1621 22.121 30.9583 22.4539C30.7546 22.7856 30.5247 23.0858 30.2688 23.3541C30.0129 23.6212 29.7819 23.8889 29.577 24.1572C29.3732 24.4261 29.2713 24.7388 29.2713 25.0954ZM41.3434 23.9464C41.3434 24.406 41.4963 24.8532 41.8031 25.2873C42.1093 25.722 42.4796 25.9779 42.9144 26.0549L36.3606 27.012H36.2468C36.068 27.012 35.9151 26.948 35.7872 26.8201C35.6592 26.6921 35.5953 26.5393 35.5953 26.3605V11.0729C35.5953 10.5884 35.4418 10.1347 35.1356 9.71305C34.8288 9.29136 34.4585 9.04201 34.0243 8.96443L40.5757 8.00732H40.6918C41.126 8.00732 41.3434 8.22469 41.3434 8.65882V23.9464Z" fill="#808991"/>
</svg>

<svg xmlns="http://www.w3.org/2000/svg" width="90" height="29" fill="none" viewBox="0 0 90 29"><path fill="#808991" d="M16.933 14.444q.805.806 1.379 2.09a29 29 0 0 1 1.054 2.72q.48 1.435.977 2.892.499 1.455 1.092 2.547t1.379 1.725q.786.631 1.898.402-.728.766-2.03 1.168-1.305.403-2.837.44-2.185 0-3.623-1.11a8.8 8.8 0 0 1-2.355-2.796 17.7 17.7 0 0 1-1.476-3.64 121 121 0 0 1-.976-3.64q-.422-1.686-.863-2.817-.44-1.13-1.13-1.13h2.339q.84 0 1.587-.516.749-.52 1.303-1.4.557-.882.882-2.068a9.6 9.6 0 0 0 .327-2.569q0-1.34-.327-2.565-.325-1.227-.882-2.147-.555-.919-1.303-1.473Q12.601 0 11.761 0h3.677q1.495 0 2.798.519a7.1 7.1 0 0 1 2.28 1.436A7 7 0 0 1 22.068 4.1q.575 1.225.575 2.604a6.1 6.1 0 0 1-.576 2.606 7 7 0 0 1-1.552 2.146 7.1 7.1 0 0 1-2.279 1.436 7.5 7.5 0 0 1-2.798.516h-.574q.306 0 .69.154.305.117.668.327t.711.554M9.23 24.293q0 .957.67 1.743.67.784 1.669.784H.186q.96.001 1.63-.784.67-.786.67-1.744V2.529q0-.957-.67-1.741Q1.146 0 .186 0H9.23zM72.957 24.712q0 .692.46 1.343.461.65 1.11.765h-8.89q.652-.116 1.112-.765.46-.651.46-1.343V11.073a2.27 2.27 0 0 0-.46-1.36q-.46-.632-1.111-.748l6.553-.958h.114q.651 0 .652.652zM70.083 5.939a2.84 2.84 0 0 1-2.088-.862 2.84 2.84 0 0 1-.862-2.09q0-1.224.862-2.106A2.81 2.81 0 0 1 70.083 0q1.226 0 2.108.881.882.882.882 2.106 0 .614-.23 1.152-.23.536-.633.938-.403.404-.96.632-.554.23-1.167.23"/><path fill="#808991" d="M63.225 10.192V23.37q0 .881.593 1.476.594.594 1.438.594.573 0 1.073-.308-.346.27-.805.597-.46.325-1.036.611-.573.287-1.265.48-.69.19-1.493.191a4.1 4.1 0 0 1-1.668-.343 4.3 4.3 0 0 1-1.36-.941 4.7 4.7 0 0 1-.92-1.379 4.1 4.1 0 0 1-.345-1.668V10.075q0-.69-.44-1.319-.442-.633-1.131-.787a11.1 11.1 0 0 0 4.061-1.054 11.5 11.5 0 0 0 3.298-2.357v3.411h1.53q-.648.154-1.089.787-.44.63-.44 1.32zM46.286 25.48q.075.535.671.976.595.44 1.668.518a9 9 0 0 1-2.511-.497 8 8 0 0 1-2.05-1.073 5.2 5.2 0 0 1-1.4-1.514 3.55 3.55 0 0 1-.517-1.86q0-1.224.863-2.087a2.85 2.85 0 0 1 2.09-.862q.61 0 1.165.23t.96.632q.402.403.632.94t.23 1.147q0 .69-.287 1.284a3 3 0 0 1-.786 1.016 4.3 4.3 0 0 0-.536.557q-.23.287-.192.592m10.31-3.831q.075 1.149-.481 2.127-.555.976-1.571 1.685-1.015.708-2.355 1.13-1.342.42-2.837.421 1.035 0 1.763-.843t.728-1.876q0-.96-.709-1.86-.708-.9-1.8-1.8a89 89 0 0 0-2.34-1.858 31 31 0 0 1-2.335-1.992 11 11 0 0 1-1.803-2.185 4.65 4.65 0 0 1-.709-2.49q0-1.15.614-1.992a5.1 5.1 0 0 1 1.552-1.398 7.3 7.3 0 0 1 2.087-.824q1.152-.27 2.225-.27h.63q.29 0 .595.078-1.035-.154-1.782.479-.746.632-.746 1.895 0 1.035.651 1.916.653.882 1.647 1.725a41 41 0 0 0 2.166 1.706 28 28 0 0 1 2.201 1.8q1.035.94 1.763 2.03a5.06 5.06 0 0 1 .846 2.396m-1.265-7.28a17 17 0 0 0-.482-1.898 8.6 8.6 0 0 0-.919-2.011 7 7 0 0 0-1.493-1.704q-.9-.747-2.203-1.016.613.114 1.13.268t.976.308q.46.15.9.23.441.076.941.037.306-.04.669-.154.364-.116.48-.267zM82.5 7.624q-.384.078-.903.71-.517.631-.976 1.666a14 14 0 0 0-.787 2.395q-.325 1.36-.324 2.893 0 1.917.497 3.603.5 1.684 1.363 2.95.862 1.263 2.011 1.992a4.5 4.5 0 0 0 2.453.727q1.11 0 2.184-.554a5.9 5.9 0 0 0 1.877-1.554 9.1 9.1 0 0 1-3.104 3.316 7.84 7.84 0 0 1-4.291 1.244q-1.8 0-3.393-.765a9 9 0 0 1-2.777-2.07q-1.187-1.303-1.88-3.066-.689-1.763-.689-3.793 0-1.992.69-3.774.691-1.781 1.879-3.084a9 9 0 0 1 2.777-2.069 7.7 7.7 0 0 1 3.393-.767m.651 0a8.1 8.1 0 0 1 2.604.654 8.9 8.9 0 0 1 2.147 1.303 6.4 6.4 0 0 1 1.455 1.684q.537.919.538 1.763 0 1.224-.882 2.087a2.9 2.9 0 0 1-2.106.862 2.84 2.84 0 0 1-2.09-.862 2.84 2.84 0 0 1-.862-2.087q0-1.19.805-2.07a3.7 3.7 0 0 0 .614-.785q.23-.402.23-.825 0-.383-.23-.708a1.8 1.8 0 0 0-.595-.535 3.3 3.3 0 0 0-.805-.327 5.4 5.4 0 0 0-.823-.154"/><path fill="#808991" d="M29.271 25.095q0 .615.747 1.111.748.498 1.86.498 1.265 0 2.3-.306-1.343.46-2.876.593-1.53.135-2.815-.325-1.284-.459-2.128-1.608-.843-1.15-.843-3.296v-10.69a2.27 2.27 0 0 0-.46-1.359q-.46-.633-1.111-.749l6.554-.957h.113q.652 0 .652.652v12.568q0 .727-.306 1.227a5.4 5.4 0 0 1-.69.9 10 10 0 0 0-.691.803 1.5 1.5 0 0 0-.306.938m12.072-1.149q0 .69.46 1.341.46.652 1.111.768l-6.553.957h-.114a.63.63 0 0 1-.46-.192.63.63 0 0 1-.192-.46V11.073q0-.727-.46-1.36-.459-.633-1.11-.749l6.55-.957h.117q.651 0 .651.652z"/></svg>
